app/assets/images/chevrom-yessa.svg

<svg width="70" height="65" viewBox="0 0 70 65" fill="currentColor" xmlns="http://www.w3.org/2000/svg">
<path d="M8.70616 37.7505C5.03305 35.1973 4.97682 29.7824 8.59611 27.1534L28.3641 12.796C32.6358 9.69376 38.6284 12.7088 38.6832 17.9879L38.9771 46.2892C39.032 51.5683 33.1033 54.7071 28.7681 51.6943L8.70616 37.7505Z" fill="#8E7E5D" stroke="#8E7E5D"/>
<path d="M63 39C66.866 39 70 35.866 70 32C70 28.134 66.866 25 63 25V39ZM22 32V39H63V32V25H22V32Z" fill="#8E7E5D"/>
</svg>

<svg xmlns="http://www.w3.org/2000/svg" width="70" height="65" fill="currentColor"><path fill="#8E7E5D" stroke="#8E7E5D" d="M8.706 37.75c-3.673-2.553-3.73-7.968-.11-10.597l19.768-14.357c4.272-3.102 10.264-.087 10.32 5.192l.293 28.301c.055 5.28-5.874 8.418-10.209 5.405z"/><path fill="#8E7E5D" d="M63 39a7 7 0 1 0 0-14zm-41-7v7h41V25H22z"/></svg>
